fixtures/luts/warm-2.cube
TITLE "Warm 2x2x2 test LUT"
LUT_3D_SIZE 2
DOMAIN_MIN 0 0 0
DOMAIN_MAX 1 1 1
0 0 0
1 0.03 0
0.04 0.96 0
1 1 0
0.02 0 0.92
1 0.04 0.9
0.05 0.98 0.92
1 1 0.94
